docs/.gitbook/assets/icon-thumbs-up-filled-16@light.svg

<svg width="32" height="32" viewBox="0 0 16 16" fill="none" xmlns="http://www.w3.org/2000/svg">
<rect x="0" y="0" width="16" height="16" fill="#fff"/>
<path fill-rule="evenodd" clip-rule="evenodd" d="M15.0009 7.86943V12.6449C15.0009 13.3888 14.5923 14.0886 13.8964 14.3516C10.4714 15.646 7.40292 14.5851 5.93154 13.8748C5.33679 13.5877 5.01183 12.9696 5.01179 12.3092C5.01172 10.9434 5.01164 8.62037 5.01186 7.62178C6.17924 5.78666 6.33319 3.18052 6.3422 2.07777C6.34454 1.79132 6.57722 1.55064 6.86306 1.56939C10.0581 1.77896 10.8242 3.92648 10.2277 6.50504C10.2101 6.58138 10.2453 6.55733 10.3486 6.48683C10.6677 6.26912 11.6361 5.60842 13.7007 6.09317C14.502 6.28132 15.0009 7.04628 15.0009 7.86943ZM3.50391 6.77976V13.2798C3.50391 13.9701 2.94426 14.5298 2.25391 14.5298C1.56355 14.5298 1.00391 13.9701 1.00391 13.2798V6.77976C1.00391 6.08941 1.56355 5.52976 2.25391 5.52976C2.94426 5.52976 3.50391 6.08941 3.50391 6.77976Z" fill="#000"/>
</svg>

<svg xmlns="http://www.w3.org/2000/svg" width="32" height="32" fill="none" viewBox="0 0 16 16"><path fill="#fff" d="M0 0h16v16H0z"/><path fill="#000" fill-rule="evenodd" d="M15 7.87v4.775c0 .744-.408 1.444-1.104 1.707-3.425 1.294-6.493.233-7.964-.477-.595-.287-.92-.905-.92-1.566V7.622c1.167-1.835 1.321-4.441 1.33-5.544.003-.287.235-.527.521-.509 3.195.21 3.961 2.357 3.365 4.936-.018.076.017.052.12-.018.32-.218 1.288-.879 3.353-.394.801.188 1.3.953 1.3 1.776M3.505 6.78v6.5a1.25 1.25 0 0 1-2.5 0v-6.5a1.25 1.25 0 0 1 2.5 0" clip-rule="evenodd"/></svg>
